www/images/undo.svg

<svg fill="none" height="75" viewBox="0 0 75 75" width="75" xmlns="http://www.w3.org/2000/svg"><path d="m41.8749 18.6927h-3.4405l1.7499-5.3866c.3509-1.1836.0592-2.3673-.8749-3.1949-.9343-.82759-2.1008-.94554-3.1512-.41379l-22.8058 11.12689c-1.0504.474-1.6336 1.5397-1.6336 2.6632 0 1.1837.6425 2.1893 1.6336 2.6633l22.8081 11.1269c1.1074.5317 2.3332.356 3.2082-.4739.8749-.8276 1.2258-2.0113.8157-3.1949l-1.7499-5.3866h3.4405c6.5918.1179 11.9576 5.5622 11.9576 12.2502v3.4331c0 6.6882-5.3659 12.1324-11.9576 12.1324h-4.0831c-6.5918-.0601-11.9576-5.4443-11.9576-12.1324v-.8276c0-2.6633-2.1008-4.7948-4.7256-4.7948-2.6249 0-4.7257 2.1315-4.7257 4.7948v.8276c0 11.9543 9.6244 21.7194 21.4065 21.7194h4.083c11.7821 0 21.4065-9.7651 21.4065-21.7194l.0022-3.4331c0-12.0147-9.5649-21.7798-21.4064-21.7798z" fill="#fff"/></svg>

<svg width="75" height="75" viewBox="0 0 75 75" fill="none" xmlns="http://www.w3.org/2000/svg">
<path d="M41.8749 18.6927H38.4344L40.1843 13.3061C40.5352 12.1225 40.2435 10.9388 39.3094 10.1112C38.3751 9.28361 37.2086 9.16566 36.1582 9.69741L13.3524 20.8243C12.302 21.2983 11.7188 22.364 11.7188 23.4875C11.7188 24.6712 12.3613 25.6768 13.3524 26.1508L36.1605 37.2777C37.2679 37.8094 38.4937 37.6337 39.3687 36.8038C40.2436 35.9762 40.5945 34.7925 40.1844 33.6089L38.4345 28.2223H41.875C48.4668 28.3402 53.8326 33.7845 53.8326 40.4725V43.9056C53.8326 50.5938 48.4667 56.038 41.875 56.038H37.7919C31.2001 55.9779 25.8343 50.5937 25.8343 43.9056V43.078C25.8343 40.4147 23.7335 38.2832 21.1087 38.2832C18.4838 38.2832 16.383 40.4147 16.383 43.078V43.9056C16.383 55.8599 26.0074 65.625 37.7895 65.625H41.8725C53.6546 65.625 63.279 55.8599 63.279 43.9056L63.2812 40.4725C63.2812 28.4578 53.7163 18.6927 41.8748 18.6927H41.8749Z" fill="white"/>
</svg>
